X: 24039
T: London Lasses, The
R: reel
M: 4/4
K: Gmajor
|:G2BG dGBd|eaag efg2|G2BG dGBd|eBdB AGEF|
G2BG dGBd|eaag efga|bgag egfa|1 gedB AGEF:|2 gedB AGEG|
|:g2fg edBe|dG (3GFG BGBd|g2fg eage|dBGA BA (3A^GA|
g2fg eage|dB (3B^AB dega|bgag egfa|1 gedB AGEG:|2 gedB AGEF|

